resources/frontend/angular/src/assets/cl-logo.svg

<?xml version="1.0" encoding="UTF-8" standalone="no"?>
<!-- Created with Inkscape (http://www.inkscape.org/) -->

<svg
   xmlns:dc="http://purl.org/dc/elements/1.1/"
   xmlns:cc="http://creativecommons.org/ns#"
   xmlns:rdf="http://www.w3.org/1999/02/22-rdf-syntax-ns#"
   xmlns:svg="http://www.w3.org/2000/svg"
   xmlns="http://www.w3.org/2000/svg"
   xmlns:sodipodi="http://sodipodi.sourceforge.net/DTD/sodipodi-0.dtd"
   xmlns:inkscape="http://www.inkscape.org/namespaces/inkscape"
   version="1.1"
   id="svg2"
   xml:space="preserve"
   width="1593.6931"
   height="714.93811"
   viewBox="0 0 1593.6931 714.93811"
   sodipodi:docname="leaf.svg"
   inkscape:version="0.92.4 (5da689c313, 2019-01-14)"><metadata
     id="metadata8"><rdf:RDF><cc:Work
         rdf:about=""><dc:format>image/svg+xml</dc:format><dc:type
           rdf:resource="http://purl.org/dc/dcmitype/StillImage" /><dc:title></dc:title></cc:Work></rdf:RDF></metadata><defs
     id="defs6"><clipPath
       clipPathUnits="userSpaceOnUse"
       id="clipPath18"><path
         d="M 0,612 H 767.998 V 0 H 0 Z"
         id="path16"
         inkscape:connector-curvature="0" /></clipPath></defs><sodipodi:namedview
     pagecolor="#ffffff"
     bordercolor="#666666"
     borderopacity="1"
     objecttolerance="10"
     gridtolerance="10"
     guidetolerance="10"
     inkscape:pageopacity="0"
     inkscape:pageshadow="2"
     inkscape:window-width="1920"
     inkscape:window-height="1027"
     id="namedview4"
     showgrid="false"
     inkscape:zoom="0.40901273"
     inkscape:cx="392.72575"
     inkscape:cy="228.32361"
     inkscape:window-x="-8"
     inkscape:window-y="22"
     inkscape:window-maximized="1"
     inkscape:current-layer="g10"
     fit-margin-top="0"
     fit-margin-left="0"
     fit-margin-right="0"
     fit-margin-bottom="0" /><g
     id="g10"
     inkscape:groupmode="layer"
     inkscape:label="Cultivate logo rgb"
     transform="matrix(1.3333333,0,0,-1.3333333,-20.205926,883.39706)"><g
       id="g82"
       transform="translate(575.9849,272.3262)" /><g
       id="g86"
       transform="translate(641.0855,255.5254)" /><path
       d="M 759.19527,449.51331 H 858.9701 V 340.97325 h -99.77483 z"
       style="fill:#0085c8;fill-opacity:1;fill-rule:nonzero;stroke:none;stroke-width:8.33957672"
       id="path170"
       inkscape:connector-curvature="0"
       inkscape:export-filename="C:\Users\Slawomir\path190.png"
       inkscape:export-xdpi="219.38812"
       inkscape:export-ydpi="219.38812" /><path
       d="m 561.99775,662.54781 h 70.78594 v -77.00786 h -70.78594 z"
       style="fill:#5ab8e7;fill-opacity:1;fill-rule:nonzero;stroke:none;stroke-width:8.33957672"
       id="path174"
       inkscape:connector-curvature="0"
       inkscape:export-filename="C:\Users\Slawomir\path190.png"
       inkscape:export-xdpi="219.38812"
       inkscape:export-ydpi="219.38812" /><path
       d="m 971.25374,501.46839 h 70.78646 V 424.4613 h -70.78646 z"
       style="fill:#005187;fill-opacity:1;fill-rule:nonzero;stroke:none;stroke-width:8.33957672"
       id="path176"
       inkscape:connector-curvature="0"
       inkscape:export-filename="C:\Users\Slawomir\path190.png"
       inkscape:export-xdpi="219.38812"
       inkscape:export-ydpi="219.38812" /><path
       d="m 281.59555,415.42968 h 70.78616 v -76.99957 h -70.78616 z"
       style="fill:#0085c8;fill-opacity:1;fill-rule:nonzero;stroke:none;stroke-width:8.33957672"
       id="path178"
       inkscape:connector-curvature="0"
       inkscape:export-filename="C:\Users\Slawomir\path190.png"
       inkscape:export-xdpi="219.38812"
       inkscape:export-ydpi="219.38812" /><path
       d="M 175.73293,559.55424 H 246.5192 V 482.55467 H 175.73293 Z"
       style="fill:#0085c8;fill-opacity:1;fill-rule:nonzero;stroke:none;stroke-width:8.33957672"
       id="path180"
       inkscape:connector-curvature="0"
       inkscape:export-filename="C:\Users\Slawomir\path190.png"
       inkscape:export-xdpi="219.38812"
       inkscape:export-ydpi="219.38812" /><path
       d="m 1110.6495,396.89016 h 99.7748 V 288.35028 h -99.7748 z"
       style="fill:#5ab8e7;fill-opacity:1;fill-rule:nonzero;stroke:none;stroke-width:8.33957672"
       id="path182"
       inkscape:connector-curvature="0"
       inkscape:export-filename="C:\Users\Slawomir\path190.png"
       inkscape:export-xdpi="219.38812"
       inkscape:export-ydpi="219.38812" /><path
       d="m 870.04782,234.88508 h 99.76586 V 126.34421 h -99.76586 z"
       style="fill:#033860;fill-opacity:1;fill-rule:nonzero;stroke:none;stroke-width:8.33957672"
       id="path184"
       inkscape:connector-curvature="0"
       inkscape:export-filename="C:\Users\Slawomir\path190.png"
       inkscape:export-xdpi="219.38812"
       inkscape:export-ydpi="219.38812" /><path
       d="m 604.70392,345.65172 h 99.76633 V 237.11239 h -99.76633 z"
       style="fill:#0085c8;fill-opacity:1;fill-rule:nonzero;stroke:none;stroke-width:8.33957672"
       id="path186"
       inkscape:connector-curvature="0"
       inkscape:export-filename="C:\Users\Slawomir\path190.png"
       inkscape:export-xdpi="219.38812"
       inkscape:export-ydpi="219.38812" /><path
       d="m 461.18868,482.87047 h 99.76634 v -108.5385 h -99.76634 z"
       style="fill:#005187;fill-opacity:1;fill-rule:nonzero;stroke:none;stroke-width:8.33957672"
       id="path188"
       inkscape:connector-curvature="0"
       inkscape:export-filename="C:\Users\Slawomir\path190.png"
       inkscape:export-xdpi="219.38812"
       inkscape:export-ydpi="219.38812" /><path
       d="M 15.154445,344.01774 H 114.92043 V 235.47841 H 15.154445 Z"
       style="fill:#5ab8e7;fill-opacity:1;fill-rule:nonzero;stroke:none;stroke-width:8.33957672"
       id="path190"
       inkscape:connector-curvature="0"
       inkscape:export-filename="C:\Users\Slawomir\path190.png"
       inkscape:export-xdpi="219.38812"
       inkscape:export-ydpi="219.38812" /></g></svg>

<svg version="1.1" viewBox="0 0 1593.7 714.94" xmlns="http://www.w3.org/2000/svg">
	<g transform="matrix(1.3333 0 0 -1.3333 -20.206 883.4)">
		<path d="m759.2 449.51h99.775v-108.54h-99.775z" fill="#0085c8"/>
		<path d="m562 662.55h70.786v-77.008h-70.786z" fill="#5ab8e7"/>
		<path d="m971.25 501.47h70.786v-77.007h-70.786z" fill="#005187"/>
		<path d="m281.6 415.43h70.786v-77h-70.786z" fill="#0085c8"/>
		<path d="m175.73 559.55h70.786v-77h-70.786z" fill="#0085c8"/>
		<path d="m1110.6 396.89h99.775v-108.54h-99.775z" fill="#5ab8e7"/>
		<path d="m870.05 234.89h99.766v-108.54h-99.766z" fill="#033860"/>
		<path d="m604.7 345.65h99.766v-108.54h-99.766z" fill="#0085c8"/>
		<path d="m461.19 482.87h99.766v-108.54h-99.766z" fill="#005187"/>
		<path d="m15.154 344.02h99.766v-108.54h-99.766z" fill="#5ab8e7"/>
	</g>
</svg>
